icon-themes/breeze_svg/cmd/sc_closedoc.svg

<svg viewBox="0 0 16 16" xmlns="http://www.w3.org/2000/svg"><path d="m3 2v12h4v-1h-3v-10h5v3h3v2h1v-3l-3-3zm5.9902344 7.0097656-.9902344.9902344 1.5039062 1.503906-1.5039062 1.50586.9902344.990234 1.5058596-1.503906 1.503906 1.503906.990234-.990234-1.505859-1.50586 1.505859-1.503906-.990234-.9902344-1.503906 1.5058594z" fill="#da4453"/></svg>

<svg xmlns="http://www.w3.org/2000/svg" viewBox="0 0 16 16">
  <path
     style="fill:#da4453"
     d="M 3,2 V 14 H 7 V 13 H 4 V 3 h 5 v 3 h 3 v 2 h 1 V 5 L 10,2 Z M 8.9902344,9.0097656 8,10 9.5039062,11.503906 8,13.009766 8.9902344,14 10.496094,12.496094 12,14 12.990234,13.009766 11.484375,11.503906 12.990234,10 12,9.0097656 10.496094,10.515625 Z"
     />
</svg>
